public/assets/images/icons/swiper-arrow.svg

<svg width="30" height="46" viewBox="0 0 30 46" fill="none" xmlns="http://www.w3.org/2000/svg">
<path d="M28.0707 20.5157L8.97925 1.42424C7.6597 0.104682 5.52595 0.104682 4.22043 1.42424L1.04789 4.59678C-0.271663 5.91633 -0.271663 8.05008 1.04789 9.3556L14.5663 22.9021L1.03385 36.4345C-0.285702 37.7541 -0.285702 39.8878 1.03385 41.1933L4.2064 44.3799C5.52595 45.6995 7.6597 45.6995 8.96521 44.3799L28.0566 25.2885C29.3902 23.969 29.3902 21.8352 28.0707 20.5157Z" fill="white"/>
</svg>

<svg xmlns="http://www.w3.org/2000/svg" width="30" height="46" fill="none"><path fill="#fff" d="M28.07 20.516 8.98 1.424a3.355 3.355 0 0 0-4.76 0L1.048 4.597a3.355 3.355 0 0 0 0 4.759l13.518 13.546L1.034 36.434a3.355 3.355 0 0 0 0 4.76l3.172 3.186a3.355 3.355 0 0 0 4.76 0l19.09-19.092a3.36 3.36 0 0 0 .015-4.772"/></svg>
